source/svgs/bowtie/uE013-checkbox-check-all.svg

<svg xmlns="http://www.w3.org/2000/svg" viewBox="0 0 448 448" enable-background="new 0 0 448 448"><path d="M352 96v-96h-352v352h96v96h352v-352h-96zm-256 224h-64v-288h288v64h-224v224zm320 96h-288v-288h288v288zm-176-62.719l-75.313-75.313 22.625-22.625 52.688 52.688 116.688-116.672 22.625 22.625-139.313 139.297z"/></svg>

<svg xmlns="http://www.w3.org/2000/svg" viewBox="0 0 448 448"><path d="M352 96V0H0v352h96v96h352V96h-96zM96 320H32V32h288v64H96v224zm320 96H128V128h288v288zm-176-62.719l-75.313-75.313 22.625-22.625L240 308.031l116.688-116.672 22.625 22.625L240 353.281z"/></svg>
